app/assets/images/payment_icons/landbank.svg

<svg xmlns="http://www.w3.org/2000/svg" width="38" height="24" viewBox="0 0 38 24" fill="none" aria-labelledby="pi-landbank" role="img"><title id="pi-landbank">Land Bank</title><rect width="38" height="24" fill="white"/><path d="M18.66 4.45C18.66 4.45 18.537 5.078 18.525 5.08H18.567C18.4409 5.09289 18.3154 5.11157 18.191 5.136L18.225 5.126C18.213 5.128 17.908 4.566 17.908 4.566L17.26 4.768C17.26 4.768 17.33 5.405 17.32 5.409L17.36 5.396C17.2421 5.44727 17.1266 5.50399 17.014 5.566L17.047 5.543C17.036 5.549 16.577 5.103 16.577 5.103L16.018 5.491C16.018 5.491 16.276 6.077 16.267 6.085L16.304 6.059C16.2052 6.14383 16.1104 6.23326 16.02 6.327L16.047 6.294C16.038 6.302 15.467 6.014 15.467 6.014L15.05 6.551C15.05 6.551 15.471 7.034 15.465 7.044L15.493 7.007C15.423 7.119 15.36 7.233 15.302 7.351L15.317 7.309C15.312 7.319 14.68 7.216 14.68 7.216L14.443 7.853C14.443 7.853 14.989 8.187 14.986 8.199L15.003 8.155C14.97 8.283 14.943 8.412 14.923 8.542L14.925 8.496C14.923 8.508 14.289 8.598 14.289 8.598L14.253 9.276C14.253 9.276 14.874 9.432 14.875 9.444V9.433C14.885 9.573 14.9 9.713 14.922 9.85L14.391 10.088L14.535 10.69C15.111 12.572 16.93 13.868 19 13.87C21.07 13.868 22.888 12.572 23.465 10.69L23.609 10.088L23.074 9.849C23.098 9.699 23.114 9.549 23.122 9.398L23.125 9.444C23.125 9.432 23.746 9.276 23.746 9.276L23.711 8.598C23.711 8.598 23.077 8.508 23.075 8.496V8.506C23.0554 8.3927 23.031 8.28026 23.002 8.169L23.013 8.199C23.01 8.187 23.556 7.853 23.556 7.853L23.32 7.216C23.32 7.216 22.688 7.32 22.682 7.309C22.6309 7.21081 22.5759 7.11473 22.517 7.021L22.535 7.044C22.529 7.034 22.949 6.551 22.949 6.551L22.533 6.015C22.533 6.015 21.961 6.302 21.953 6.294L21.956 6.298C21.8778 6.21875 21.7964 6.14268 21.712 6.07L21.732 6.085C21.724 6.077 21.981 5.491 21.981 5.491L21.423 5.103C21.423 5.103 20.963 5.549 20.953 5.543L20.961 5.548C20.863 5.49566 20.7629 5.44728 20.661 5.403L20.681 5.409C20.67 5.405 20.74 4.769 20.74 4.769L20.092 4.565C20.092 4.565 19.786 5.128 19.775 5.125L19.787 5.129C19.6777 5.10789 19.5676 5.09121 19.457 5.079H19.474C19.463 5.079 19.339 4.45 19.339 4.45H18.66Z" fill="#1CB14D"/><path fill-rule="evenodd" clip-rule="evenodd" d="M18.003 7.446C17.996 8.481 18.693 9.116 18.988 9.287C19.284 9.117 19.981 8.481 19.974 7.446C19.967 6.412 19.284 5.776 18.988 5.605C18.692 5.775 18.009 6.411 18.003 7.446ZM14.844 10.804C14.967 11.121 15.125 11.42 15.314 11.697C17.041 10.648 19.542 12.36 22.53 11.912C22.743 11.636 22.925 11.334 23.07 11.012C18.783 12.49 16.596 10.122 14.844 10.804Z" fill="#FDC14F"/><path fill-rule="evenodd" clip-rule="evenodd" d="M15.652 12.133C15.842 12.349 16.052 12.546 16.28 12.722C18.926 11.304 20.016 12.502 21.439 12.922C21.706 12.747 21.953 12.544 22.176 12.318C19.911 12.646 18.204 10.958 15.652 12.133Z" fill="#FDC14F"/><path d="M18.668 12.396C18 12.396 17.333 12.617 16.785 13.059C17.4591 13.4455 18.2229 13.6483 19 13.647C19.637 13.647 20.242 13.513 20.79 13.273C20.5113 12.9945 20.1804 12.7737 19.8163 12.6232C19.4522 12.4727 19.062 12.3955 18.668 12.396Z" fill="#FDC14F"/><path d="M19.324 10.967H18.677V13.726H19.324V10.967Z" fill="#1CB14D"/><path fill-rule="evenodd" clip-rule="evenodd" d="M16.417 8.025C16.3953 8.02522 16.3736 8.02622 16.352 8.028C16.257 8.323 16.186 9.191 16.826 10.004C16.885 10.08 16.946 10.149 17.009 10.213C17.426 10.675 18.067 10.987 18.799 11.036V13.642C18.9332 13.648 19.0677 13.648 19.202 13.642V11.036C19.932 10.987 20.572 10.676 20.989 10.216L20.99 10.214C21.053 10.15 21.115 10.08 21.174 10.004C21.814 9.191 21.744 8.323 21.648 8.028C21.6267 8.02624 21.6053 8.02523 21.584 8.025C21.233 8.02 20.437 8.178 19.829 8.934C19.6314 9.17345 19.4833 9.44977 19.3933 9.74693C19.3034 10.0441 19.2733 10.3561 19.305 10.665C19.2657 10.7065 19.2184 10.7395 19.166 10.762C19.1136 10.7846 19.0571 10.7963 19 10.7963C18.9429 10.7963 18.8864 10.7846 18.834 10.762C18.7815 10.7395 18.7342 10.7065 18.695 10.665C18.7267 10.3562 18.6968 10.0442 18.607 9.74706C18.5173 9.44992 18.3694 9.17356 18.172 8.934C17.563 8.178 16.768 8.02 16.417 8.025Z" fill="#FDC14F"/><path d="M3 15.933H4.144V18.723H5.929V19.635H3V15.933ZM8.732 19.024H7.43L7.25 19.635H6.082L7.473 15.933H8.72L10.112 19.635H8.914L8.732 19.024ZM8.492 18.224L8.083 16.893L7.677 18.223H8.492V18.224ZM10.482 15.933H11.551L12.944 17.981V15.933H14.023V19.635H12.944L11.558 17.602V19.635H10.482V15.933ZM14.803 15.933H16.503C16.838 15.933 17.108 15.979 17.313 16.07C17.52 16.16 17.691 16.29 17.826 16.46C17.961 16.63 18.058 16.829 18.119 17.054C18.179 17.28 18.209 17.519 18.209 17.772C18.209 18.167 18.164 18.474 18.073 18.693C17.984 18.91 17.86 19.093 17.7 19.241C17.54 19.388 17.368 19.485 17.185 19.534C16.963 19.5972 16.7338 19.6312 16.503 19.635H14.803V15.933ZM15.947 16.771V18.794H16.227C16.467 18.794 16.637 18.768 16.737 18.716C16.846 18.6535 16.9301 18.5553 16.975 18.438C17.032 18.305 17.061 18.09 17.061 17.794C17.061 17.402 16.997 17.134 16.869 16.989C16.741 16.844 16.529 16.771 16.233 16.771H15.947ZM18.81 15.933H20.952C21.309 15.933 21.582 16.021 21.772 16.198C21.8648 16.2801 21.9387 16.3814 21.9886 16.4948C22.0385 16.6082 22.0632 16.7311 22.061 16.855C22.0653 17.0617 21.9922 17.2625 21.856 17.418C21.7469 17.5338 21.6093 17.6189 21.457 17.665C21.723 17.729 21.918 17.84 22.043 17.996C22.169 18.151 22.233 18.346 22.233 18.582C22.233 18.774 22.188 18.947 22.098 19.1C22.0103 19.2513 21.884 19.3766 21.732 19.463C21.636 19.519 21.492 19.559 21.298 19.585C21.128 19.6105 20.9567 19.6272 20.785 19.635H18.811V15.933H18.81ZM19.965 17.385H20.462C20.64 17.385 20.764 17.355 20.833 17.295C20.904 17.232 20.939 17.143 20.939 17.026C20.9414 16.9787 20.9331 16.9315 20.9148 16.8879C20.8964 16.8443 20.8685 16.8053 20.833 16.774C20.764 16.714 20.643 16.684 20.47 16.684H19.965V17.385ZM19.965 18.84H20.548C20.745 18.84 20.884 18.805 20.965 18.736C21.0048 18.7007 21.0363 18.657 21.057 18.6081C21.0778 18.5591 21.0873 18.5061 21.085 18.453C21.085 18.343 21.045 18.256 20.965 18.191C20.885 18.123 20.745 18.09 20.545 18.09H19.965V18.84ZM25.015 19.024H23.712L23.533 19.635H22.363L23.755 15.933H25.003L26.394 19.635H25.197L25.015 19.024ZM24.775 18.224L24.366 16.893L23.96 18.223H24.775V18.224ZM26.765 15.933H27.833L29.227 17.981V15.933H30.305V19.635H29.227L27.841 17.602V19.635H26.765V15.933ZM31.076 15.933H32.22V17.333L33.42 15.933H34.94L33.59 17.33L35 19.635H33.59L32.81 18.112L32.22 18.732V19.635H31.076V15.933Z" fill="#1CB14D"/></svg>

<svg width="38" height="24" viewBox="0 0 38 24" role="img" fill="none" xmlns="http://www.w3.org/2000/svg" aria-labelledby="pi-landbank"><title id="pi-landbank">Land Bank</title><g><path opacity=".07" d="M35 0H3C1.3 0 0 1.3 0 3v18c0 1.7 1.4 3 3 3h32c1.7 0 3-1.3 3-3V3c0-1.7-1.4-3-3-3z" fill="#000"/><path d="M35 1c1.1 0 2 .9 2 2v18c0 1.1-.9 2-2 2H3c-1.1 0-2-.9-2-2V3c0-1.1.9-2 2-2h32z" fill="#fff"/><path d="M18.66 4.45s-.123.628-.135.63h.042a4.131 4.131 0 00-.376.056l.034-.01c-.012.002-.317-.56-.317-.56l-.648.202s.07.637.06.641l.04-.013a4.142 4.142 0 00-.346.17l.033-.023c-.011.006-.47-.44-.47-.44l-.559.388s.258.586.249.594l.037-.026a4.15 4.15 0 00-.284.268l.027-.033c-.009.008-.58-.28-.58-.28l-.417.537s.421.483.415.493l.028-.037c-.07.112-.133.226-.191.344l.015-.042c-.005.01-.637-.093-.637-.093l-.237.637s.546.334.543.346l.017-.044c-.033.128-.06.257-.08.387l.002-.046c-.002.012-.636.102-.636.102l-.036.678s.621.156.622.168v-.011c.01.14.025.28.047.417l-.531.238.144.602c.576 1.882 2.395 3.178 4.465 3.18 2.07-.002 3.888-1.298 4.465-3.18l.144-.602-.535-.239c.024-.15.04-.3.048-.451l.003.046c0-.012.621-.168.621-.168l-.035-.678s-.634-.09-.636-.102v.01a4.11 4.11 0 00-.073-.337l.011.03c-.003-.012.543-.346.543-.346l-.236-.637s-.632.104-.638.093a4.095 4.095 0 00-.165-.288l.018.023c-.006-.01.414-.493.414-.493l-.416-.536s-.572.287-.58.279l.003.004a4.134 4.134 0 00-.244-.228l.02.015c-.008-.008.249-.594.249-.594l-.558-.388s-.46.446-.47.44l.008.005a4.134 4.134 0 00-.3-.145l.02.006c-.011-.004.059-.64.059-.64l-.648-.204s-.306.563-.317.56l.012.004a4.125 4.125 0 00-.33-.05h.017c-.011 0-.135-.629-.135-.629h-.679z" fill="#1CB14D"/><path fill-rule="evenodd" clip-rule="evenodd" d="M18.003 7.446c-.007 1.035.69 1.67.985 1.841.296-.17.993-.806.986-1.841-.007-1.034-.69-1.67-.986-1.841-.296.17-.979.806-.985 1.841zM14.844 10.804c.123.317.281.616.47.893 1.727-1.049 4.228.663 7.216.215.213-.276.395-.578.54-.9-4.287 1.478-6.474-.89-8.226-.208z" fill="#FDC14F"/><path fill-rule="evenodd" clip-rule="evenodd" d="M15.652 12.133c.19.216.4.413.628.589 2.646-1.418 3.736-.22 5.159.2.267-.175.514-.378.737-.604-2.265.328-3.972-1.36-6.524-.185z" fill="#FDC14F"/><path d="M18.668 12.396c-.668 0-1.335.221-1.883.663a4.438 4.438 0 002.215.588c.637 0 1.242-.134 1.79-.374a2.997 2.997 0 00-2.122-.877z" fill="#FDC14F"/><path d="M19.324 10.967h-.647v2.759h.647v-2.759z" fill="#1CB14D"/><path fill-rule="evenodd" clip-rule="evenodd" d="M16.417 8.025a.899.899 0 00-.065.003c-.095.295-.166 1.163.474 1.976.059.076.12.145.183.209.417.462 1.058.774 1.79.823v2.606a4.509 4.509 0 00.403 0v-2.606c.73-.049 1.37-.36 1.787-.82l.001-.002c.063-.064.125-.134.184-.21.64-.813.57-1.681.474-1.976a.893.893 0 00-.064-.003c-.351-.005-1.147.153-1.755.909a2.344 2.344 0 00-.524 1.731.42.42 0 01-.61 0 2.345 2.345 0 00-.523-1.731c-.609-.756-1.404-.914-1.755-.909z" fill="#FDC14F"/><path d="M3 15.933h1.144v2.79h1.785v.912H3v-3.702zM8.732 19.024H7.43l-.18.611H6.082l1.391-3.702h1.247l1.392 3.702H8.914l-.182-.611zm-.24-.8l-.409-1.331-.406 1.33h.815zM10.482 15.933h1.069l1.393 2.048v-2.048h1.079v3.702h-1.079l-1.386-2.033v2.033h-1.076v-3.702zM14.803 15.933h1.7c.335 0 .605.046.81.137.207.09.378.22.513.39s.232.369.293.594c.06.226.09.465.09.718 0 .395-.045.702-.136.921-.089.217-.213.4-.373.548-.16.147-.332.244-.515.293a2.65 2.65 0 01-.682.101h-1.7v-3.702zm1.144.838v2.023h.28c.24 0 .41-.026.51-.078a.545.545 0 00.238-.278c.057-.133.086-.348.086-.644 0-.392-.064-.66-.192-.805-.128-.145-.34-.218-.636-.218h-.286zM18.81 15.933h2.142c.357 0 .63.088.82.265a.857.857 0 01.289.657.828.828 0 01-.205.563.911.911 0 01-.399.247c.266.064.461.175.586.331.126.155.19.35.19.586 0 .192-.045.365-.135.518a.986.986 0 01-.366.363c-.096.056-.24.096-.434.122a5 5 0 01-.513.05h-1.974v-3.702zm1.155 1.452h.497c.178 0 .302-.03.371-.09.071-.063.106-.152.106-.269a.315.315 0 00-.106-.252c-.069-.06-.19-.09-.363-.09h-.505v.701zm0 1.455h.583c.197 0 .336-.035.417-.104a.357.357 0 00.12-.283c0-.11-.04-.197-.12-.262-.08-.068-.22-.101-.42-.101h-.58v.75zM25.015 19.024h-1.303l-.179.611h-1.17l1.392-3.702h1.248l1.391 3.702h-1.197l-.182-.611zm-.24-.8l-.409-1.331-.406 1.33h.815zM26.765 15.933h1.068l1.394 2.048v-2.048h1.078v3.702h-1.078l-1.386-2.033v2.033h-1.076v-3.702zM31.076 15.933h1.144v1.4l1.2-1.4h1.52l-1.35 1.397L35 19.635h-1.41l-.78-1.523-.59.62v.903h-1.144v-3.702z" fill="#1CB14D"/></g><defs><clipPath><path fill="#fff" d="M0 0h38v24H0z"/></clipPath></defs></svg>
